; generated by PrusaSlicer 2.6.1+win64 on 2024-07-03 at 11:50:11 UTC


;
;
; 

; external perimeters extrusion width = 0.45mm
; perimeters extrusion width = 0.45mm
; infill extrusion width = 0.45mm
; solid infill extrusion width = 0.45mm
; top infill extrusion width = 0.40mm
; support material extrusion width = 0.35mm
; first layer extrusion width = 0.42mm

M73 P0 R19
M73 Q0 S20
M201 X1000 Y1000 Z200 E5000 ; sets maximum accelerations, mm/sec^2
M203 X200 Y200 Z12 E120 ; sets maximum feedrates, mm / sec
M204 S1250 T1250 ; sets acceleration (S) and retract acceleration (R), mm/sec^2
M205 X8.00 Y8.00 Z0.40 E4.50 ; sets the jerk limits, mm/sec
M205 S0 T0 ; sets the minimum extruding and travel feed rate, mm/sec
;TYPE:Custom
M862.3 P "MK3S" ; printer model check
M862.1 P0.4 ; nozzle diameter check
M115 U3.13.2 ; tell printer latest fw version
G90 ; use absolute coordinates
M83 ; extruder relative mode
M104 S215 ; set extruder temp
M140 S60 ; set bed temp
M190 S60 ; wait for bed temp
M109 S215 ; wait for extruder temp
G28 W ; home all without mesh bed level
G80 ; mesh bed leveling

G1 Z0.2 F720
G1 Y-3 F1000 ; go outside print area
G92 E0
G1 X60 E9 F1000 ; intro line
G1 X100 E12.5 F1000 ; intro line

G92 E0
M221 S95

; Don't change E values below. Excessive value can damage the printer.
M907 E430 ; set extruder motor current
G21 ; set units to millimeters
G90 ; use absolute coordinates
M83 ; use relative distances for extrusion
M900 K0.05 ; Filament gcode LA 1.5
M900 K30 ; Filament gcode LA 1.0

M107
;LAYER_CHANGE
;Z:0.2
;HEIGHT:0.2
;BEFORE_LAYER_CHANGE
G92 E0.0
;0.2


M73 Q0 S19
G1 E-.8 F2100
G1 Z.4 F720
;AFTER_LAYER_CHANGE
;0.2
G1 X89.106 Y89.574 F10800
G1 Z.2 F720
G1 E.8 F2100
M204 S800
;TYPE:Skirt/Brim
;WIDTH:0.42
G1 F1200
G1 X89.848 Y89.049 E.0285
G1 X90.658 Y88.634 E.02854
G1 X92.075 Y88.218 E.0463
G1 X93.15 Y88.123 E.03384
G1 X157.02 Y88.129 E2.0026
G1 X157.925 Y88.218 E.02851
G1 X159.342 Y88.634 E.0463
G1 X160.152 Y89.049 E.02854
G1 X161.15 Y89.796 E.03909
G1 X162.118 Y90.913 E.04634
G1 X162.575 Y91.699 E.02851
G1 X163.011 Y92.868 E.03912
G1 X163.221 Y94.33 E.04631
G1 X163.18 Y116.239 E.68694
G1 X163.011 Y117.132 E.0285
M73 P1 R19
M73 Q1 S19
G1 X162.716 Y117.992 E.02851
G1 X162.118 Y119.087 E.03912
G1 X161.554 Y119.8 E.0285
G1 X160.894 Y120.426 E.02852
G1 X160.152 Y120.951 E.0285
G1 X159.342 Y121.366 E.02854
G1 X157.925 Y121.782 E.0463
G1 X156.85 Y121.877 E.03384
G1 X92.98 Y121.871 E2.0026
G1 X92.075 Y121.782 E.02851
G1 X91.192 Y121.565 E.02851
G1 X90.349 Y121.225 E.0285
G1 X89.563 Y120.768 E.02851
G1 X88.85 Y120.204 E.0285
G1 X88.224 Y119.544 E.02852
G1 X87.699 Y118.802 E.0285
G1 X87.284 Y117.992 E.02854
G1 X86.868 Y116.575 E.0463
G1 X86.773 Y115.5 E.03384
G1 X86.82 Y93.761 E.68161
G1 X86.989 Y92.868 E.0285
G1 X87.284 Y92.008 E.02851
G1 X87.699 Y91.198 E.02854
G1 X88.201 Y90.486 E.02732
G1 X89.064 Y89.617 E.0384
M204 S1000
; printing object mkr1310v3-topcovoer.stl id:0 copy 0
;WIPE_START
G1 F8640
G1 X89.848 Y89.049 E-.22354
G1 X90.658 Y88.634 E-.21015
G1 X92.075 Y88.218 E-.341
G1 X92.184 Y88.208 E-.02531
;WIPE_END
G1 Z.6 F720
G1 X114.101 Y96.27 F10800
G1 Z.2 F720
G1 E.8 F2100
M204 S800
;TYPE:Support material
G1 F1200
G1 X111.831 Y96.27 E.07117
G1 X111.666 Y96.248 E.00522
G1 X111.542 Y96.197 E.0042
G1 X111.435 Y96.115 E.00423
G1 X111.353 Y96.008 E.00423
G1 X111.302 Y95.884 E.0042
G1 X111.28 Y95.719 E.00522
G1 X111.28 Y93.778 E.06086
G1 X111.301 Y93.617 E.00509
G1 X111.353 Y93.492 E.00424
G1 X111.435 Y93.385 E.00423
G1 X111.542 Y93.303 E.00423
G1 X111.666 Y93.252 E.0042
G1 X111.831 Y93.23 E.00522
G1 X114.101 Y93.23 E.07117
G1 X114.101 Y96.213 E.09353
M204 S1000
G1 X113.688 Y96.1 F10800
M204 S800
G1 F1200
G1 X113.688 Y93.569 E.07936
G1 X113.269 Y93.569 E.01314
G1 X113.269 Y95.931 E.07406
G1 X112.85 Y95.931 E.01314
G1 X112.85 Y93.569 E.07406
G1 X112.431 Y93.569 E.01314
G1 X112.431 Y95.931 E.07406
G1 X112.012 Y95.931 E.01314
G1 X112.012 Y93.4 E.07936
M204 S1000
;WIPE_START
G1 F8640
G1 X112.012 Y95.931 E-.58441
G1 X112.431 Y95.931 E-.09675
G1 X112.431 Y95.416 E-.11884
;WIPE_END
G1 Z.6 F720
G1 X90.71 Y92.415 F10800
G1 Z.2 F720
G1 E.8 F2100
M204 S800
;TYPE:Perimeter
;WIDTH:0.419999
G1 F1200
G1 X91.235 Y91.933 E.02235
G1 X91.816 Y91.579 E.02133
G1 X92.47 Y91.37 E.02153
G1 X93.178 Y91.287 E.02235
G1 X110.81 Y91.288 E.55284
;WIDTH:0.463888
G1 X110.94 Y91.31 E.00462
;WIDTH:0.507776
G1 X111.069 Y91.332 E.00506
;WIDTH:0.551664
G1 X111.198 Y91.354 E.00554
;WIDTH:0.595552
G1 X111.328 Y91.375 E.00605
G1 X111.787 Y91.362 E.0211
;WIDTH:0.569059
G1 X147.843 Y91.363 E1.5774
;WIDTH:0.598749
G1 X148.289 Y91.378 E.02062
G1 X148.44 Y91.356 E.00705
;WIDTH:0.554062
G1 X148.591 Y91.334 E.00649
;WIDTH:0.509374
G1 X148.742 Y91.311 E.00592
;WIDTH:0.464687
G1 X148.893 Y91.289 E.00535
;WIDTH:0.419999
G1 X156.734 Y91.289 E.24585
G1 X157.307 Y91.322 E.018
G1 X157.971 Y91.5 E.02155
G1 X158.586 Y91.799 E.02144
G1 X159.112 Y92.235 E.02142
G1 X159.551 Y92.764 E.02155
G1 X159.851 Y93.382 E.02154
M73 Q2 S19
G1 X160.028 Y94.043 E.02146
G1 X160.063 Y94.648 E.019
G1 X160.063 Y115.352 E.64916
G1 X160.044 Y115.731 E.0119
M73 P2 R19
G1 X159.931 Y116.405 E.02143
G1 X159.661 Y117.032 E.0214
G1 X159.277 Y117.603 E.02158
G1 X158.769 Y118.065 E.02153
G1 X158.184 Y118.421 E.02147
G1 X157.53 Y118.63 E.02153
G1 X156.822 Y118.713 E.02235
G1 X148.784 Y118.713 E.25203
;WIDTH:0.463993
G1 X148.654 Y118.691 E.00462
;WIDTH:0.507986
G1 X148.524 Y118.669 E.0051
;WIDTH:0.551979
G1 X148.394 Y118.647 E.00558
;WIDTH:0.595972
G1 X148.264 Y118.625 E.00606
G1 X147.804 Y118.638 E.02116
;WIDTH:0.569746
G1 X111.778 Y118.638 E1.57815
;WIDTH:0.592777
G1 X111.367 Y118.627 E.0188
G1 X111.213 Y118.648 E.00711
;WIDTH:0.549583
G1 X111.058 Y118.67 E.0066
;WIDTH:0.506388
G1 X110.904 Y118.691 E.00599
;WIDTH:0.463194
G1 X110.749 Y118.713 E.00547
;WIDTH:0.419999
G1 X93.298 Y118.713 E.54716
G1 X92.922 Y118.695 E.0118
G1 X92.245 Y118.581 E.02153
G1 X91.615 Y118.311 E.02149
G1 X91.047 Y117.927 E.0215
G1 X90.586 Y117.419 E.02151
G1 X90.229 Y116.834 E.02149
G1 X90.02 Y116.181 E.0215
G1 X89.937 Y115.472 E.02238
G1 X89.937 Y94.648 E.65292
G1 X89.955 Y94.271 E.01183
G1 X90.069 Y93.595 E.02149
G1 X90.342 Y92.96 E.02167
G1 X90.677 Y92.465 E.01874
M204 S1000
G1 X90.428 Y92.164 F10800
M204 S800
;TYPE:External perimeter
G1 F1200
G1 X90.8 Y91.787 E.01661
G1 X91.21 Y91.481 E.01604
G1 X91.659 Y91.235 E.01605
G1 X92.139 Y91.056 E.01606
G1 X92.639 Y90.948 E.01604
G1 X93.165 Y90.91 E.01654
G1 X156.704 Y90.912 E1.99222
G1 X157.106 Y90.929 E.01262
G1 X157.612 Y91.002 E.01603
G1 X158.103 Y91.147 E.01605
G1 X158.571 Y91.361 E.01614
G1 X159.182 Y91.774 E.02312
G1 X159.563 Y92.15 E.01678
G1 X159.869 Y92.56 E.01604
G1 X160.115 Y93.009 E.01605
G1 X160.294 Y93.489 E.01606
G1 X160.402 Y93.989 E.01604
G1 X160.44 Y94.648 E.0207
G1 X160.44 Y115.352 E.64916
G1 X160.421 Y115.757 E.01271
G1 X160.347 Y116.267 E.01616
G1 X160.123 Y116.969 E.0231
G1 X159.869 Y117.441 E.01681
G1 X159.562 Y117.85 E.01603
G1 X159.2 Y118.212 E.01605
G1 X158.79 Y118.519 E.01606
G1 X158.341 Y118.765 E.01605
G1 X157.861 Y118.944 E.01606
G1 X157.361 Y119.052 E.01604
G1 X156.835 Y119.09 E.01654
G1 X93.165 Y119.09 E1.99632
G1 X92.639 Y119.052 E.01654
M73 P3 R19
M73 Q3 S19
G1 X92.139 Y118.944 E.01604
G1 X91.659 Y118.765 E.01606
G1 X91.21 Y118.519 E.01605
G1 X90.8 Y118.212 E.01606
G1 X90.438 Y117.85 E.01605
G1 X90.131 Y117.44 E.01606
G1 X89.885 Y116.991 E.01605
G1 X89.706 Y116.511 E.01606
G1 X89.598 Y116.011 E.01604
G1 X89.56 Y115.485 E.01654
G1 X89.56 Y94.648 E.65333
G1 X89.579 Y94.244 E.01268
G1 X89.652 Y93.738 E.01603
G1 X89.797 Y93.247 E.01605
G1 X90.011 Y92.779 E.01614
G1 X90.394 Y92.213 E.02143
M204 S1000
G1 X90.822 Y92.232 F10800
;WIPE_START
G1 F8640
G1 X90.8 Y91.787 E-.13588
G1 X91.21 Y91.481 E-.11813
G1 X91.659 Y91.235 E-.11822
G1 X92.139 Y91.056 E-.11829
G1 X92.639 Y90.948 E-.11811
G1 X93.165 Y90.91 E-.12177
G1 X93.466 Y90.91 E-.0696
;WIPE_END
G1 Z.6 F720
G1 X110.248 Y92.885 F10800
G1 Z.2 F720
G1 E.8 F2100
M204 S800
;TYPE:Perimeter
G1 F1200
G1 X110.277 Y92.823 E.00215
G1 X110.596 Y92.432 E.01582
;WIDTH:0.462964
G1 X110.927 Y92.218 E.01377
;WIDTH:0.505928
G1 X111.258 Y92.004 E.01517
;WIDTH:0.549198
G1 X111.331 Y91.963 E.00352
;WIDTH:0.592467
G1 X111.404 Y91.921 E.00385
G1 X111.787 Y91.888 E.01757
;WIDTH:0.569059
G1 X147.843 Y91.889 E1.5774
;WIDTH:0.598749
G1 X148.244 Y91.931 E.01863
G1 X148.355 Y92 E.00604
;WIDTH:0.554062
G1 X148.466 Y92.07 E.00558
;WIDTH:0.509374
G1 X148.577 Y92.14 E.00509
;WIDTH:0.464687
G1 X148.688 Y92.21 E.0046
;WIDTH:0.419999
G1 X149.114 Y92.552 E.01713
G1 X149.371 Y92.923 E.01415
G1 X149.531 Y93.356 E.01447
G1 X149.577 Y93.741 E.01216
G1 X149.577 Y95.765 E.06346
G1 X149.494 Y96.283 E.01645
G1 X149.298 Y96.706 E.01462
G1 X148.999 Y97.064 E.01462
G1 X148.599 Y97.34 E.01524
G1 X148.18 Y97.492 E.01398
G1 X147.804 Y97.537 E.01187
G1 X111.785 Y97.537 E1.12935
G1 X111.317 Y97.472 E.01481
G1 X110.844 Y97.258 E.01628
G1 X110.486 Y96.959 E.01462
G1 X110.218 Y96.578 E.01461
G1 X110.057 Y96.138 E.01469
G1 X110.013 Y95.765 E.01178
G1 X110.013 Y93.741 E.06346
G1 X110.099 Y93.208 E.01693
G1 X110.223 Y92.94 E.00926
M204 S1000
G1 X110.594 Y93.03 F10800
M204 S800
;TYPE:External perimeter
G1 F1200
G1 X110.823 Y92.733 E.01176
G1 X111.125 Y92.512 E.01173
G1 X111.464 Y92.381 E.0114
G1 X111.787 Y92.34 E.01021
G1 X147.843 Y92.34 E1.13051
G1 X148.217 Y92.406 E.01191
G1 X148.567 Y92.575 E.01219
G1 X148.813 Y92.78 E.01004
G1 X149.023 Y93.068 E.01118
G1 X149.157 Y93.406 E.0114
G1 X149.2 Y93.741 E.01059
G1 X149.2 Y95.765 E.06346
G1 X149.146 Y96.139 E.01185
G1 X148.999 Y96.476 E.01153
G1 X148.77 Y96.765 E.01156
G1 X148.455 Y96.992 E.01217
G1 X148.131 Y97.119 E.01091
G1 X147.804 Y97.16 E.01033
G1 X111.782 Y97.16 E1.12944
G1 X111.428 Y97.112 E.0112
M73 P4 R19
M73 Q4 S19
G1 X111.074 Y96.959 E.01209
G1 X110.785 Y96.73 E.01156
G1 X110.566 Y96.434 E.01154
G1 X110.431 Y96.089 E.01162
G1 X110.39 Y95.765 E.01024
G1 X110.39 Y93.741 E.06346
G1 X110.447 Y93.353 E.0123
G1 X110.565 Y93.082 E.00927
M204 S1000
G1 X110.408 Y92.703 F10800
;WIPE_START
G1 F8640
G1 X110.823 Y92.733 E-.10021
G1 X111.125 Y92.512 E-.08641
G1 X111.464 Y92.381 E-.08392
G1 X111.787 Y92.34 E-.07518
G1 X113.754 Y92.34 E-.45428
;WIPE_END
G1 Z.6 F720
G1 X109.618 Y101.251 F10800
G1 Z.2 F720
G1 E.8 F2100
M204 S800
;TYPE:Perimeter
G1 F1200
G1 X109.72 Y101.258 E.00321
G1 X110.272 Y101.384 E.01775
G1 X110.899 Y101.642 E.02126
G1 X111.471 Y102.009 E.02131
G1 X111.968 Y102.471 E.02128
G1 X112.374 Y103.015 E.02128
G1 X112.676 Y103.622 E.02126
G1 X112.866 Y104.274 E.02129
G1 X112.936 Y104.949 E.02128
G1 X112.884 Y105.626 E.02129
G1 X112.712 Y106.283 E.02129
G1 X112.426 Y106.898 E.02127
G1 X112.034 Y107.453 E.0213
G1 X111.55 Y107.928 E.02126
G1 X110.989 Y108.31 E.02128
G1 X110.368 Y108.585 E.02129
G1 X109.72 Y108.742 E.02091
G1 X109.076 Y108.782 E.02023
G1 X108.402 Y108.708 E.02126
G1 X107.76 Y108.518 E.02099
G1 X107.115 Y108.192 E.02266
G1 X106.57 Y107.771 E.02159
G1 X106.117 Y107.266 E.02127
G1 X105.761 Y106.688 E.02128
G1 X105.514 Y106.056 E.02128
G1 X105.384 Y105.387 E.02137
G1 X105.375 Y104.711 E.0212
G1 X105.487 Y104.042 E.02127
G1 X105.717 Y103.403 E.02129
G1 X106.058 Y102.816 E.02129
G1 X106.497 Y102.299 E.02127
G1 X107.022 Y101.868 E.0213
G1 X107.616 Y101.539 E.02129
G1 X108.258 Y101.321 E.02126
G1 X108.876 Y101.228 E.0196
G1 X109.559 Y101.246 E.02142
M204 S1000
G1 X109.577 Y101.618 F10800
M204 S800
;TYPE:External perimeter
G1 F1200
G1 X110.188 Y101.752 E.01961
G1 X110.751 Y101.989 E.01915
G1 X111.263 Y102.323 E.01917
G1 X111.707 Y102.744 E.01918
G1 X112.069 Y103.236 E.01915
G1 X112.337 Y103.786 E.01918
G1 X112.502 Y104.374 E.01915
G1 X112.56 Y104.983 E.01918
G1 X112.508 Y105.592 E.01916
G1 X112.349 Y106.182 E.01916
G1 X112.086 Y106.735 E.0192
G1 X111.729 Y107.231 E.01916
G1 X111.289 Y107.656 E.01918
G1 X110.781 Y107.995 E.01915
G1 X110.22 Y108.238 E.01917
G1 X109.637 Y108.374 E.01877
G1 X109.059 Y108.405 E.01815
G1 X108.453 Y108.335 E.01913
G1 X107.877 Y108.159 E.01888
G1 X107.288 Y107.857 E.02075
G1 X106.806 Y107.477 E.01924
G1 X106.401 Y107.018 E.01919
G1 X106.085 Y106.495 E.01916
G1 X105.858 Y105.891 E.02023
G1 X105.755 Y105.321 E.01816
G1 X105.752 Y104.711 E.01913
G1 X105.858 Y104.109 E.01917
G1 X106.07 Y103.536 E.01916
G1 X106.381 Y103.009 E.01919
G1 X106.781 Y102.547 E.01916
G1 X107.257 Y102.163 E.01918
G1 X107.794 Y101.871 E.01917
G1 X108.375 Y101.679 E.01919
G1 X108.927 Y101.601 E.01748
G1 X109.517 Y101.616 E.0185
M204 S1000
G1 X109.819 Y101.3 F10800
;WIPE_START
G1 F8640
G1 X110.188 Y101.752 E-.15809
G1 X110.751 Y101.989 E-.14105
G1 X111.263 Y102.323 E-.14115
G1 X111.707 Y102.744 E-.14128
G1 X112.069 Y103.236 E-.14104
G1 X112.216 Y103.537 E-.07739
;WIPE_END
G1 Z.6 F720
G1 X149.566 Y116.337 F10800
G1 Z.2 F720
G1 E.8 F2100
M204 S800
;TYPE:Perimeter
G1 F1200
G1 X149.491 Y116.792 E.01446
G1 X149.312 Y117.179 E.01337
G1 X148.99 Y117.571 E.01591
;WIDTH:0.462802
G1 X148.662 Y117.783 E.01364
;WIDTH:0.505605
G1 X148.334 Y117.995 E.01503
;WIDTH:0.549263
G1 X148.261 Y118.037 E.00355
;WIDTH:0.59292
G1 X148.188 Y118.079 E.00385
G1 X147.804 Y118.112 E.01763
;WIDTH:0.569746
G1 X111.778 Y118.111 E1.57815
;WIDTH:0.592777
G1 X111.403 Y118.079 E.01721
M73 P4 R18
G1 X111.287 Y118.012 E.00612
;WIDTH:0.549583
G1 X111.17 Y117.944 E.0057
;WIDTH:0.506388
G1 X111.054 Y117.877 E.00516
;WIDTH:0.463194
G1 X110.938 Y117.81 E.00468
;WIDTH:0.419999
G1 X110.567 Y117.539 E.01441
G1 X110.28 Y117.185 E.01429
G1 X110.108 Y116.813 E.01285
G1 X110.013 Y116.263 E.0175
G1 X110.013 Y114.235 E.06359
G1 X110.096 Y113.717 E.01645
G1 X110.292 Y113.294 E.01462
G1 X110.591 Y112.936 E.01462
G1 X110.972 Y112.668 E.01461
G1 X111.442 Y112.503 E.01562
G1 X112.236 Y112.463 E.02493
G1 X147.804 Y112.463 E1.11521
G1 X148.323 Y112.546 E.01648
G1 X148.746 Y112.742 E.01462
G1 X149.104 Y113.041 E.01462
G1 X149.372 Y113.422 E.01461
G1 X149.532 Y113.86 E.01462
G1 X149.577 Y114.236 E.01187
G1 X149.576 Y116.278 E.06403
M204 S1000
G1 X149.111 Y116.719 F10800
M204 S800
;TYPE:External perimeter
G1 F1200
G1 X149.01 Y116.953 E.00799
G1 X148.762 Y117.271 E.01264
G1 X148.467 Y117.487 E.01146
G1 X148.127 Y117.619 E.01144
G1 X147.804 Y117.66 E.01021
G1 X111.778 Y117.659 E1.12957
G1 X111.413 Y117.605 E.01157
G1 X111.046 Y117.439 E.01263
G1 X110.769 Y117.209 E.01129
G1 X110.56 Y116.919 E.01121
G1 X110.444 Y116.625 E.00991
G1 X110.39 Y116.263 E.01148
G1 X110.39 Y114.235 E.06359
G1 X110.444 Y113.861 E.01185
G1 X110.591 Y113.524 E.01153
G1 X110.82 Y113.235 E.01156
G1 X111.116 Y113.016 E.01154
G1 X111.491 Y112.877 E.01254
G1 X112.236 Y112.84 E.02339
G1 X147.804 Y112.84 E1.11521
G1 X148.179 Y112.894 E.01188
M73 P5 R18
M73 Q5 S19
G1 X148.516 Y113.041 E.01153
G1 X148.805 Y113.27 E.01156
G1 X149.024 Y113.566 E.01154
G1 X149.159 Y113.909 E.01156
G1 X149.2 Y114.236 E.01033
G1 X149.198 Y116.28 E.06409
G1 X149.135 Y116.664 E.0122
M204 S1000
G1 X149.287 Y116.903 F10800
;WIPE_START
G1 F8640
G1 X149.01 Y116.953 E-.07271
G1 X148.762 Y117.271 E-.09312
G1 X148.467 Y117.487 E-.08442
G1 X148.127 Y117.619 E-.08422
G1 X147.804 Y117.66 E-.07518
G1 X146.113 Y117.66 E-.39035
;WIPE_END
G1 Z.6 F720
G1 X159.84 Y93.974 F10800
G1 Z.2 F720
G1 E.8 F2100
M204 S800
;TYPE:Solid infill
;WIDTH:0.420036
G1 F1200
G1 X157.598 Y91.732 E.09942
G1 X157.259 Y91.659 E.01087
M73 Q5 S18
G1 X156.97 Y91.638 E.00909
G1 X159.712 Y94.38 E.1216
G1 X159.724 Y94.925 E.01709
G1 X156.428 Y91.629 E.14616
G1 X155.894 Y91.629 E.01674
G1 X159.724 Y95.458 E.16982
G1 X159.724 Y95.991 E.01671
G1 X155.361 Y91.629 E.19346
G1 X154.828 Y91.629 E.01671
G1 X159.724 Y96.525 E.21712
G1 X159.724 Y97.058 E.01671
G1 X154.294 Y91.629 E.24078
G1 X153.761 Y91.629 E.01671
G1 X159.724 Y97.591 E.26441
G1 X159.724 Y98.125 E.01674
G1 X153.227 Y91.629 E.28809
G1 X152.694 Y91.629 E.01671
G1 X159.724 Y98.658 E.31173
G1 X159.724 Y99.191 E.01671
G1 X152.161 Y91.628 E.33539
G1 X151.627 Y91.628 E.01674
G1 X159.724 Y99.725 E.35907
G1 X159.724 Y100.258 E.01671
G1 X151.094 Y91.628 E.38271
G1 X150.561 Y91.628 E.01671
G1 X159.724 Y100.791 E.40634
G1 X159.724 Y101.325 E.01674
G1 X150.027 Y91.628 E.43002
G1 X149.494 Y91.628 E.01671
