; generated by PrusaSlicer 2.6.1+win64 on 2024-07-01 at 13:38:47 UTC


;
;
; 

; external perimeters extrusion width = 0.45mm
; perimeters extrusion width = 0.45mm
; infill extrusion width = 0.45mm
; solid infill extrusion width = 0.45mm
; top infill extrusion width = 0.40mm
; first layer extrusion width = 0.42mm

M73 P0 R68
M73 Q0 S69
M201 X1000 Y1000 Z200 E5000 ; sets maximum accelerations, mm/sec^2
M203 X200 Y200 Z12 E120 ; sets maximum feedrates, mm / sec
M204 S1250 T1250 ; sets acceleration (S) and retract acceleration (R), mm/sec^2
M205 X8.00 Y8.00 Z0.40 E4.50 ; sets the jerk limits, mm/sec
M205 S0 T0 ; sets the minimum extruding and travel feed rate, mm/sec
;TYPE:Custom
M862.3 P "MK3S" ; printer model check
M862.1 P0.4 ; nozzle diameter check
M115 U3.13.2 ; tell printer latest fw version
G90 ; use absolute coordinates
M83 ; extruder relative mode
M104 S215 ; set extruder temp
M140 S60 ; set bed temp
M190 S60 ; wait for bed temp
M109 S215 ; wait for extruder temp
G28 W ; home all without mesh bed level
G80 ; mesh bed leveling

G1 Z0.2 F720
G1 Y-3 F1000 ; go outside print area
G92 E0
G1 X60 E9 F1000 ; intro line
G1 X100 E12.5 F1000 ; intro line

G92 E0
M221 S95

; Don't change E values below. Excessive value can damage the printer.
M907 E430 ; set extruder motor current
G21 ; set units to millimeters
G90 ; use absolute coordinates
M83 ; use relative distances for extrusion
M900 K0.05 ; Filament gcode LA 1.5
M900 K30 ; Filament gcode LA 1.0

M107
;LAYER_CHANGE
;Z:0.2
;HEIGHT:0.2
;BEFORE_LAYER_CHANGE
G92 E0.0
;0.2


G1 E-.8 F2100
G1 Z.4 F720
;AFTER_LAYER_CHANGE
;0.2
G1 X88.778 Y89.864 F10800
G1 Z.2 F720
G1 E.8 F2100
M204 S800
;TYPE:Skirt/Brim
;WIDTH:0.42
G1 F1200
G1 X89.557 Y89.237 E.03135
G1 X90.424 Y88.74 E.03133
G1 X91.359 Y88.384 E.03137
G1 X92.135 Y88.204 E.02498
G1 X122.239 Y83.201 E.95684
G1 X123.15 Y83.123 E.02867
G1 X127.357 Y83.132 E.13191
G1 X158.031 Y88.238 E.975
G1 X158.996 Y88.5 E.03135
G1 X159.908 Y88.909 E.03134
G1 X160.745 Y89.456 E.03135
G1 X161.486 Y90.128 E.03136
G1 X162.113 Y90.907 E.03135
G1 X162.85 Y92.354 E.05092
G1 X163.112 Y93.319 E.03135
G1 X163.22 Y94.314 E.03138
G1 X163.227 Y115.5 E.66427
G1 X163.112 Y116.681 E.0372
G1 X162.61 Y118.226 E.05094
G1 X161.894 Y119.395 E.04298
G1 X161.222 Y120.136 E.03136
G1 X160.443 Y120.763 E.03135
G1 X159.576 Y121.26 E.03133
G1 X158.641 Y121.616 E.03137
G1 X157.869 Y121.795 E.02485
G1 X128.065 Y126.799 E.94756
G1 X127.15 Y126.877 E.02879
G1 X123.15 Y126.877 E.12542
G1 X122.239 Y126.799 E.02867
G1 X92.135 Y121.796 E.95684
G1 X91.004 Y121.5 E.03666
G1 X90.092 Y121.091 E.03134
G1 X89.255 Y120.544 E.03135
G1 X88.514 Y119.872 E.03136
G1 X87.887 Y119.093 E.03135
G1 X87.15 Y117.646 E.05092
G1 X86.888 Y116.681 E.03135
G1 X86.78 Y115.686 E.03138
G1 X86.773 Y94.5 E.66427
G1 X86.888 Y93.319 E.0372
G1 X87.39 Y91.774 E.05094
G1 X87.887 Y90.907 E.03133
G1 X88.739 Y89.91 E.04112
M204 S1000
; printing object mkr1310v3-bottom.stl id:0 copy 0
;WIPE_START
G1 F8640
G1 X89.557 Y89.237 E-.24459
G1 X90.424 Y88.74 E-.23075
G1 X91.359 Y88.384 E-.23101
G1 X91.754 Y88.292 E-.09365
;WIPE_END
G1 Z.6 F720
G1 X130.531 Y91.213 F10800
G1 Z.2 F720
G1 E.8 F2100
M204 S800
;TYPE:Perimeter
;WIDTH:0.419999
G1 F1200
G1 X118.718 Y91.22 E.37039
;WIDTH:0.408789
G1 X118.804 Y91.199 E.00269
;WIDTH:0.419999
G1 X119.427 Y90.975 E.02076
G1 X119.923 Y90.647 E.01864
G1 X120.367 Y90.186 E.02007
G1 X120.676 Y89.671 E.01883
G1 X120.871 Y89.08 E.01951
G1 X120.944 Y88.394 E.02163
G1 X121.048 Y87.838 E.01774
G1 X121.236 Y87.395 E.01509
G1 X121.551 Y86.986 E.01619
G1 X121.967 Y86.641 E.01695
G1 X122.346 Y86.446 E.01336
G1 X122.765 Y86.324 E.01368
G1 X123.629 Y86.254 E.02718
G1 X123.543 Y86.339 E.00379
G1 X123.267 Y86.838 E.01788
G1 X123.16 Y87.38 E.01732
G1 X123.21 Y87.939 E.0176
G1 X123.392 Y88.417 E.01604
G1 X123.7 Y88.85 E.01666
G1 X124.11 Y89.189 E.01668
G1 X124.593 Y89.41 E.01665
G1 X125.117 Y89.498 E.01666
G1 X125.67 Y89.444 E.01742
G1 X126.144 Y89.262 E.01592
G1 X126.577 Y88.954 E.01666
G1 X126.916 Y88.545 E.01666
G1 X127.137 Y88.061 E.01668
G1 X127.224 Y87.535 E.01672
G1 X127.165 Y87 E.01688
G1 X126.95 Y86.495 E.01721
G1 X126.755 Y86.256 E.00967
G1 X127.474 Y86.318 E.02263
G1 X127.906 Y86.423 E.01394
G1 X128.371 Y86.668 E.01648
G1 X128.77 Y87.007 E.01642
G1 X129.064 Y87.395 E.01526
G1 X129.251 Y87.834 E.01496
G1 X129.355 Y88.382 E.01749
G1 X129.459 Y89.212 E.02623
G1 X129.677 Y89.781 E.01911
G1 X129.99 Y90.254 E.01778
G1 X130.475 Y90.725 E.0212
G1 X130.984 Y91.029 E.01859
G1 X131.587 Y91.22 E.01983
;WIDTH:0.41037
G1 X131.459 Y91.218 E.00391
;WIDTH:0.419999
G1 X130.591 Y91.213 E.02722
M204 S1000
;WIPE_START
G1 F8640
G1 X127.126 Y91.215 E-.8
;WIPE_END
G1 Z.6 F720
G1 X126.784 Y87.053 F10800
G1 Z.2 F720
G1 E.8 F2100
M204 S800
;TYPE:External perimeter
G1 F1200
G1 X126.847 Y87.509 E.01443
G1 X126.788 Y87.917 E.01293
G1 X126.616 Y88.315 E.01359
G1 X126.348 Y88.655 E.01357
G1 X126 Y88.914 E.0136
G1 X125.597 Y89.074 E.0136
G1 X125.166 Y89.124 E.0136
G1 X124.737 Y89.061 E.0136
G1 X124.339 Y88.889 E.01359
G1 X123.999 Y88.62 E.01359
G1 X123.741 Y88.272 E.01358
G1 X123.581 Y87.869 E.0136
G1 X123.537 Y87.406 E.01458
G1 X123.606 Y87.002 E.01285
G1 X123.809 Y86.607 E.01392
G1 X124.129 Y86.304 E.01382
;WIDTH:0.43003
G1 X124.499 Y86.135 E.01309
G1 X125.141 Y86.028 E.02095
;WIDTH:0.4073
G1 X125.574 Y86.062 E.01316
;WIDTH:0.424841
G1 X125.996 Y86.184 E.01395
G1 X126.348 Y86.384 E.01286
;WIDTH:0.419999
G1 X126.61 Y86.658 E.01189
G1 X126.772 Y86.995 E.01172
M204 S1000
G1 X127.172 Y87.148 F10800
;WIPE_START
G1 F8640
G1 X126.847 Y87.509 E-.11994
G1 X126.788 Y87.917 E-.09519
G1 X126.616 Y88.315 E-.10011
G1 X126.348 Y88.655 E-.09996
G1 X126 Y88.914 E-.10017
G1 X125.597 Y89.074 E-.10012
G1 X125.166 Y89.124 E-.10019
G1 X124.805 Y89.071 E-.08432
;WIPE_END
G1 Z.6 F720
G1 X148.564 Y94.978 F10800
G1 Z.2 F720
G1 E.8 F2100
M204 S800
;WIDTH:0.557592
G1 F1200
G1 X148.566 Y94.45 E.0226
;WIDTH:0.56767
G1 X148.571 Y94.384 E.00289
M204 S1000
;WIPE_START
G1 F8640
G1 X148.566 Y94.45 E-.01528
G1 X148.564 Y94.978 E-.12192
;WIPE_END
G1 E-.6628 F2100
G1 Z.6 F720
G1 X131.246 Y110.213 F10800
G1 Z.2 F720
G1 E.8 F2100
M204 S800
;TYPE:Perimeter
;WIDTH:0.419999
G1 F1200
G1 X113.288 Y110.213 E.56306
G1 X112.619 Y110.299 E.02115
G1 X112.035 Y110.518 E.01956
G1 X111.514 Y110.862 E.01958
G1 X111.083 Y111.313 E.01956
G1 X110.763 Y111.849 E.01957
G1 X110.571 Y112.442 E.01954
G1 X110.513 Y112.988 E.01722
G1 X110.516 Y116.076 E.09682
G1 X110.599 Y116.681 E.01915
G1 X110.818 Y117.265 E.01956
G1 X111.162 Y117.786 E.01958
G1 X111.613 Y118.217 E.01956
G1 X112.149 Y118.537 E.01957
G1 X112.743 Y118.721 E.0195
G1 X93.181 Y118.713 E.61335
G1 X92.648 Y118.671 E.01676
G1 X92.158 Y118.553 E.0158
G1 X91.692 Y118.361 E.0158
G1 X91.263 Y118.097 E.01579
G1 X90.88 Y117.77 E.01579
G1 X90.553 Y117.387 E.01579
G1 X90.289 Y116.958 E.01579
G1 X90.097 Y116.492 E.0158
G1 X89.979 Y116.002 E.0158
G1 X89.937 Y115.469 E.01676
G1 X89.937 Y94.531 E.6565
G1 X89.979 Y93.998 E.01676
G1 X90.097 Y93.508 E.0158
G1 X90.289 Y93.042 E.0158
G1 X90.553 Y92.613 E.01579
G1 X90.88 Y92.23 E.01579
G1 X91.263 Y91.903 E.01579
G1 X91.692 Y91.639 E.01579
G1 X92.158 Y91.447 E.0158
G1 X92.648 Y91.329 E.0158
G1 X93.181 Y91.287 E.01676
G1 X112.709 Y91.281 E.61229
;WIDTH:0.411241
G1 X112.62 Y91.303 E.00281
;WIDTH:0.419999
G1 X112.035 Y91.518 E.01954
G1 X111.514 Y91.862 E.01958
G1 X111.083 Y92.313 E.01956
G1 X110.763 Y92.849 E.01957
G1 X110.571 Y93.442 E.01954
G1 X110.513 Y93.988 E.01722
G1 X110.516 Y97.076 E.09682
G1 X110.599 Y97.681 E.01915
G1 X110.818 Y98.265 E.01956
G1 X111.162 Y98.786 E.01958
G1 X111.613 Y99.217 E.01956
G1 X112.149 Y99.537 E.01957
G1 X112.742 Y99.729 E.01954
G1 X113.288 Y99.787 E.01722
G1 X146.302 Y99.787 E1.03513
G1 X146.971 Y99.701 E.02115
G1 X147.555 Y99.482 E.01956
G1 X148.076 Y99.138 E.01958
G1 X148.507 Y98.687 E.01956
G1 X148.849 Y98.088 E.02163
G1 X149.016 Y97.578 E.01683
G1 X149.068 Y97.067 E.0161
G1 X149.041 Y96.619 E.01407
G1 X149.255 Y96.787 E.00853
G1 X149.676 Y96.995 E.01472
G1 X150.042 Y97.083 E.0118
G1 X150.564 Y97.112 E.01639
G1 X150.902 Y97.059 E.01073
G1 X151.409 Y96.893 E.01673
G1 X151.785 Y96.671 E.01369
G1 X152.115 Y96.384 E.01371
G1 X152.386 Y96.041 E.01371
G1 X152.589 Y95.654 E.0137
G1 X152.718 Y95.236 E.01372
G1 X152.768 Y94.802 E.0137
G1 X152.737 Y94.366 E.0137
G1 X152.627 Y93.943 E.0137
G1 X152.44 Y93.548 E.0137
G1 X152.185 Y93.193 E.0137
G1 X151.868 Y92.892 E.01371
G1 X151.502 Y92.654 E.01369
G1 X151.098 Y92.487 E.01371
G1 X150.67 Y92.397 E.01371
G1 X150.232 Y92.389 E.01374
G1 X149.797 Y92.464 E.01384
G1 X149.396 Y92.625 E.01355
G1 X149.041 Y92.869 E.01351
G1 X148.823 Y93.101 E.00998
G1 X148.751 Y92.803 E.00961
G1 X148.428 Y92.226 E.02073
G1 X147.977 Y91.784 E.0198
G1 X147.441 Y91.463 E.01959
G1 X146.847 Y91.279 E.0195
G1 X156.819 Y91.287 E.31266
G1 X157.352 Y91.329 E.01676
G1 X157.842 Y91.447 E.0158
G1 X158.308 Y91.639 E.0158
G1 X158.737 Y91.903 E.01579
G1 X159.12 Y92.23 E.01579
G1 X159.447 Y92.613 E.01579
G1 X159.711 Y93.042 E.01579
G1 X159.903 Y93.508 E.0158
M73 Q0 S68
G1 X160.021 Y93.998 E.0158
G1 X160.063 Y94.664 E.02092
G1 X160.063 Y115.469 E.65233
G1 X160.021 Y116.002 E.01676
G1 X159.903 Y116.492 E.0158
G1 X159.711 Y116.958 E.0158
G1 X159.447 Y117.387 E.01579
G1 X159.12 Y117.77 E.01579
G1 X158.737 Y118.097 E.01579
G1 X158.308 Y118.361 E.01579
G1 X157.842 Y118.553 E.0158
G1 X157.352 Y118.671 E.0158
G1 X156.819 Y118.713 E.01676
G1 X146.881 Y118.719 E.3116
;WIDTH:0.411241
G1 X146.97 Y118.697 E.00281
;WIDTH:0.419999
G1 X147.556 Y118.481 E.01958
G1 X148.082 Y118.131 E.01981
G1 X148.516 Y117.655 E.0202
G1 X148.751 Y117.197 E.01614
G1 X148.823 Y116.899 E.00961
G1 X148.883 Y116.982 E.00321
G1 X149.261 Y117.298 E.01545
G1 X149.68 Y117.499 E.01457
G1 X150.124 Y117.6 E.01428
G1 X150.565 Y117.612 E.01383
G1 X150.998 Y117.542 E.01375
G1 X151.409 Y117.393 E.01371
G1 X151.785 Y117.171 E.01369
G1 X152.115 Y116.884 E.01371
G1 X152.386 Y116.541 E.01371
G1 X152.589 Y116.154 E.0137
G1 X152.718 Y115.736 E.01372
G1 X152.768 Y115.302 E.0137
G1 X152.737 Y114.866 E.0137
G1 X152.627 Y114.443 E.0137
G1 X152.44 Y114.048 E.0137
G1 X152.185 Y113.693 E.0137
G1 X151.868 Y113.392 E.01371
G1 X151.502 Y113.154 E.01369
G1 X151.098 Y112.987 E.01371
G1 X150.67 Y112.897 E.01371
G1 X150.298 Y112.889 E.01167
G1 X149.794 Y112.967 E.01599
G1 X149.404 Y113.128 E.01323
G1 X149.041 Y113.381 E.01387
G1 X149.063 Y113.109 E.00856
G1 X149.038 Y112.636 E.01485
G1 X148.964 Y112.243 E.01254
G1 X148.772 Y111.735 E.01703
G1 X148.428 Y111.214 E.01958
G1 X147.977 Y110.783 E.01956
G1 X147.441 Y110.463 E.01957
G1 X146.848 Y110.271 E.01954
G1 X146.302 Y110.213 E.01722
G1 X131.306 Y110.213 E.47019
M204 S1000
;WIPE_START
G1 F8640
G1 X127.841 Y110.213 E-.8
;WIPE_END
G1 Z.6 F720
G1 X148.563 Y115.477 F10800
G1 Z.2 F720
G1 E.8 F2100
M204 S800
;TYPE:External perimeter
;WIDTH:0.556478
G1 F1200
G1 X148.567 Y114.95 E.0225
;WIDTH:0.566282
G1 X148.572 Y114.884 E.00288
M204 S1000
;WIPE_START
G1 F8640
G1 X148.567 Y114.95 E-.01528
G1 X148.563 Y115.477 E-.12169
;WIPE_END
G1 E-.66303 F2100
G1 Z.6 F720
G1 X131.498 Y118.796 F10800
G1 Z.2 F720
G1 E.8 F2100
M204 S800
;TYPE:Perimeter
;WIDTH:0.412844
G1 F1200
G1 X131.463 Y118.805 E.00111
;WIDTH:0.419999
G1 X130.873 Y119.025 E.01974
G1 X130.372 Y119.358 E.01886
G1 X129.915 Y119.842 E.02087
G1 X129.624 Y120.329 E.01779
G1 X129.429 Y120.92 E.01951
G1 X129.36 Y121.575 E.02065
G1 X129.251 Y122.164 E.01878
G1 X129.064 Y122.605 E.01502
G1 X128.785 Y122.979 E.01463
G1 X128.384 Y123.323 E.01657
G1 X127.952 Y123.555 E.01537
G1 X127.536 Y123.676 E.01358
G1 X126.691 Y123.742 E.02658
G1 X126.81 Y123.62 E.00534
G1 X127.086 Y123.104 E.01835
G1 X127.182 Y122.582 E.01664
G1 X127.133 Y122.038 E.01713
G1 X126.949 Y121.547 E.01644
G1 X126.641 Y121.114 E.01666
G1 X126.231 Y120.775 E.01668
G1 X125.748 Y120.554 E.01665
G1 X125.167 Y120.47 E.01841
G1 X124.671 Y120.52 E.01563
G1 X124.197 Y120.701 E.01591
G1 X123.764 Y121.009 E.01666
G1 X123.425 Y121.419 E.01668
G1 X123.204 Y121.903 E.01668
G1 X123.117 Y122.43 E.01675
G1 X123.174 Y122.962 E.01678
G1 X123.384 Y123.467 E.01715
G1 X123.609 Y123.742 E.01114
G1 X122.834 Y123.682 E.02437
G1 X122.394 Y123.577 E.01418
G1 X121.916 Y123.323 E.01697
G1 X121.515 Y122.979 E.01657
G1 X121.236 Y122.605 E.01463
G1 X121.049 Y122.164 E.01502
G1 X120.94 Y121.575 E.01878
G1 X120.841 Y120.788 E.02487
G1 X120.623 Y120.219 E.01911
G1 X120.31 Y119.746 E.01778
G1 X119.825 Y119.275 E.0212
G1 X119.316 Y118.971 E.01859
G1 X118.713 Y118.78 E.01983
;WIDTH:0.410372
G1 X118.841 Y118.782 E.00391
;WIDTH:0.419999
G1 X131.551 Y118.782 E.39851
M204 S1000
;WIPE_START
G1 F8640
G1 X131.463 Y118.805 E-.021
G1 X130.873 Y119.025 E-.1454
G1 X130.372 Y119.358 E-.1389
G1 X129.915 Y119.842 E-.1537
G1 X129.624 Y120.329 E-.131
G1 X129.429 Y120.92 E-.1437
G1 X129.399 Y121.206 E-.0663
;WIPE_END
G1 Z.6 F720
G1 X126.729 Y122.976 F10800
G1 Z.2 F720
G1 E.8 F2100
M204 S800
;TYPE:External perimeter
G1 F1200
G1 X126.539 Y123.357 E.01335
G1 X126.224 Y123.666 E.01384
;WIDTH:0.43287
G1 X125.846 Y123.848 E.0136
G1 X125.18 Y123.945 E.02182
G1 X124.454 Y123.848 E.02375
G1 X124.023 Y123.628 E.01569
;WIDTH:0.419999
G1 X123.726 Y123.306 E.01373
G1 X123.547 Y122.908 E.01368
G1 X123.491 Y122.476 E.01366
G1 X123.553 Y122.047 E.01359
G1 X123.724 Y121.649 E.01358
G1 X123.993 Y121.309 E.01359
G1 X124.341 Y121.05 E.0136
G1 X124.744 Y120.89 E.0136
G1 X125.127 Y120.845 E.01209
G1 X125.603 Y120.903 E.01504
G1 X126.001 Y121.074 E.01358
G1 X126.341 Y121.343 E.01359
G1 X126.6 Y121.691 E.0136
G1 X126.76 Y122.095 E.01362
G1 X126.795 Y122.62 E.0165
G1 X126.744 Y122.918 E.00948
M204 S1000
G1 X126.995 Y123.275 F10800
;WIPE_START
G1 F8640
G1 X126.539 Y123.357 E-.11187
G1 X126.224 Y123.666 E-.10189
G1 X125.846 Y123.848 E-.09687
G1 X125.18 Y123.945 E-.1554
G1 X124.454 Y123.848 E-.16913
G1 X124.023 Y123.628 E-.11173
G1 X123.867 Y123.459 E-.05311
;WIPE_END
G1 Z.6 F720
G1 X148.62 Y115.629 F10800
G1 Z.2 F720
G1 E.8 F2100
M204 S800
;WIDTH:0.546265
G1 F1200
G1 X148.565 Y115.491 E.00622
G1 X148.542 Y115.645 E.00652
;WIDTH:0.504177
G1 X148.519 Y115.8 E.00601
;WIDTH:0.462088
G1 X148.497 Y115.954 E.00542
;WIDTH:0.419999
G1 X148.496 Y116.457 E.01577
G1 X148.436 Y116.954 E.0157
G1 X148.19 Y117.466 E.01781
G1 X147.811 Y117.869 E.01735
G1 X147.355 Y118.162 E.01699
G1 X146.847 Y118.345 E.01693
G1 X146.324 Y118.409 E.01652
G1 X113.288 Y118.41 E1.03582
G1 X112.784 Y118.354 E.0159
M73 P1 R67
M73 Q1 S68
G1 X112.273 Y118.181 E.01692
G1 X111.814 Y117.898 E.01691
G1 X111.429 Y117.519 E.01694
G1 X111.138 Y117.065 E.01691
G1 X110.955 Y116.557 E.01693
G1 X110.89 Y116.012 E.01721
G1 X110.89 Y112.988 E.09482
G1 X110.946 Y112.484 E.0159
G1 X111.138 Y111.935 E.01824
G1 X111.404 Y111.511 E.01569
G1 X111.781 Y111.129 E.01683
G1 X112.235 Y110.838 E.01691
G1 X112.743 Y110.655 E.01693
G1 X113.288 Y110.59 E.01721
G1 X146.302 Y110.59 E1.03513
G1 X146.806 Y110.646 E.0159
G1 X147.317 Y110.819 E.01692
G1 X147.776 Y111.102 E.01691
G1 X148.161 Y111.481 E.01694
G1 X148.452 Y111.935 E.01691
G1 X148.635 Y112.443 E.01693
G1 X148.692 Y112.97 E.01662
G1 X148.645 Y113.52 E.01731
G1 X148.5 Y114.305 E.02503
;WIDTH:0.46876
G1 X148.524 Y114.498 E.00689
;WIDTH:0.517521
G1 X148.548 Y114.691 E.00768
;WIDTH:0.566282
G1 X148.572 Y114.884 E.00846
G1 X148.657 Y114.72 E.00804
;WIDTH:0.517521
G1 X148.741 Y114.557 E.00724
;WIDTH:0.46876
G1 X148.826 Y114.393 E.00654
;WIDTH:0.419999
G1 X149.005 Y114.016 E.01309
G1 X149.23 Y113.712 E.01186
G1 X149.558 Y113.472 E.01274
G1 X149.87 Y113.337 E.01066
G1 X150.299 Y113.266 E.01363
G1 X150.601 Y113.268 E.00947
G1 X150.962 Y113.339 E.01154
G1 X151.304 Y113.474 E.01153
G1 X151.614 Y113.671 E.01152
G1 X151.884 Y113.921 E.01154
G1 X152.103 Y114.216 E.01152
G1 X152.264 Y114.547 E.01154
G1 X152.361 Y114.901 E.01151
G1 X152.392 Y115.267 E.01152
G1 X152.355 Y115.633 E.01153
G1 X152.251 Y115.986 E.01154
G1 X152.085 Y116.314 E.01153
G1 X151.861 Y116.605 E.01151
G1 X151.587 Y116.85 E.01152
G1 X151.272 Y117.041 E.01155
G1 X150.928 Y117.171 E.01153
G1 X150.566 Y117.235 E.01153
G1 X150.197 Y117.231 E.01157
G1 X149.831 Y117.154 E.01173
