; generated by PrusaSlicer 2.6.1+win64 on 2024-07-05 at 10:59:15 UTC


;
;
; 

; external perimeters extrusion width = 0.45mm
; perimeters extrusion width = 0.45mm
; infill extrusion width = 0.45mm
; solid infill extrusion width = 0.45mm
; top infill extrusion width = 0.40mm
; first layer extrusion width = 0.42mm

M73 P0 R328
M73 Q0 S330
M201 X1000 Y1000 Z200 E5000 ; sets maximum accelerations, mm/sec^2
M203 X200 Y200 Z12 E120 ; sets maximum feedrates, mm / sec
M204 S1250 T1250 ; sets acceleration (S) and retract acceleration (R), mm/sec^2
M205 X8.00 Y8.00 Z0.40 E4.50 ; sets the jerk limits, mm/sec
M205 S0 T0 ; sets the minimum extruding and travel feed rate, mm/sec
;TYPE:Custom
M862.3 P "MK3S" ; printer model check
M862.1 P0.4 ; nozzle diameter check
M115 U3.13.2 ; tell printer latest fw version
G90 ; use absolute coordinates
M83 ; extruder relative mode
M104 S215 ; set extruder temp
M140 S60 ; set bed temp
M190 S60 ; wait for bed temp
M109 S215 ; wait for extruder temp
G28 W ; home all without mesh bed level
G80 ; mesh bed leveling

G1 Z0.2 F720
G1 Y-3 F1000 ; go outside print area
G92 E0
G1 X60 E9 F1000 ; intro line
G1 X100 E12.5 F1000 ; intro line

G92 E0
M221 S95

; Don't change E values below. Excessive value can damage the printer.
M907 E430 ; set extruder motor current
G21 ; set units to millimeters
G90 ; use absolute coordinates
M83 ; use relative distances for extrusion
M900 K0.05 ; Filament gcode LA 1.5
M900 K30 ; Filament gcode LA 1.0

M107
;LAYER_CHANGE
;Z:0.2
;HEIGHT:0.2
;BEFORE_LAYER_CHANGE
G92 E0.0
;0.2


G1 E-.8 F2100
G1 Z.4 F720
;AFTER_LAYER_CHANGE
;0.2
G1 X68.777 Y24.091 F10800
G1 Z.2 F720
G1 E.8 F2100
M204 S800
;TYPE:Skirt/Brim
;WIDTH:0.42
G1 F1200
G1 X69.318 Y22.873 E.04179
G1 X70.139 Y21.833 E.04154
G1 X70.636 Y21.397 E.02073
G1 X71.516 Y20.837 E.0327
G1 X72.75 Y20.372 E.04135
G1 X74.184 Y20.192 E.04531
G1 X177.017 Y20.196 E3.22426
G1 X178.319 Y20.372 E.04119
G1 X179.307 Y20.718 E.03282
G1 X180.124 Y21.174 E.02934
G1 X180.929 Y21.833 E.03262
G1 X181.548 Y22.563 E.03001
G1 X182.06 Y23.464 E.03249
G1 X182.372 Y24.388 E.03058
G1 X182.512 Y25.569 E.03729
G1 X182.511 Y97.598 E2.25842
G1 X181.442 Y184.46 E2.7237
G1 X181.361 Y185.323 E.02718
G1 X181.186 Y186.028 E.02278
G1 X180.556 Y187.325 E.04521
G1 X179.609 Y188.4 E.04492
G1 X178.425 Y189.192 E.04466
G1 X177.086 Y189.667 E.04455
G1 X175.816 Y189.808 E.04006
G1 X73.116 Y189.808 E3.22009
G1 X72.262 Y189.743 E.02685
G1 X71.564 Y189.597 E.02236
G1 X70.506 Y189.192 E.03552
G1 X69.889 Y188.834 E.02237
G1 X68.814 Y187.894 E.04477
G1 X68.204 Y187.051 E.03263
G1 X67.882 Y186.399 E.0228
G1 X67.653 Y185.708 E.02282
G1 X67.488 Y184.431 E.04037
G1 X67.489 Y112.402 E2.25842
G1 X68.558 Y25.54 E2.7237
G1 X68.627 Y24.745 E.02502
G1 X68.763 Y24.149 E.01917
M204 S1000
; printing object resized_Bxo.stl id:0 copy 0
;WIPE_START
G1 F8640
G1 X69.318 Y22.873 E-.3213
G1 X70.139 Y21.833 E-.30595
G1 X70.636 Y21.397 E-.15266
G1 X70.709 Y21.35 E-.02009
;WIPE_END
G1 Z.6 F720
G1 X70.851 Y185.249 F10800
G1 Z.2 F720
G1 E.8 F2100
M204 S800
;TYPE:Perimeter
;WIDTH:0.419999
G1 F1200
G1 X70.734 Y184.988 E.00897
G1 X70.653 Y184.403 E.01852
G1 X70.658 Y112.38 E2.25823
G1 X70.734 Y111.874 E.01604
G1 X70.961 Y111.366 E.01745
G1 X71.355 Y110.891 E.01935
G1 X71.864 Y110.531 E.01955
G1 X72.465 Y110.302 E.02017
G1 X73.156 Y110.218 E.02183
M73 Q0 S329
G1 X175.775 Y110.218 E3.21754
G1 X176.466 Y110.302 E.02183
G1 X177.067 Y110.531 E.02017
G1 X177.576 Y110.891 E.01955
G1 X177.827 Y111.193 E.01231
G1 X178.098 Y111.606 E.01549
G1 X178.228 Y112.018 E.01355
G1 X178.278 Y112.537 E.01635
G1 X178.278 Y183.979 E2.24001
G1 X178.273 Y184.481 E.01574
G1 X178.197 Y184.988 E.01607
G1 X177.97 Y185.496 E.01745
G1 X177.576 Y185.97 E.01933
G1 X177.067 Y186.33 E.01955
G1 X176.466 Y186.56 E.02018
G1 X175.775 Y186.644 E.02183
G1 X73.156 Y186.644 E3.21754
G1 X72.465 Y186.56 E.02183
M73 P0 R327
G1 X71.864 Y186.33 E.02018
G1 X71.355 Y185.97 E.01955
G1 X70.961 Y185.496 E.01933
G1 X70.875 Y185.304 E.0066
M204 S1000
G1 X70.488 Y185.411 F10800
M204 S800
;TYPE:External perimeter
G1 F1200
G1 X70.335 Y184.924 E.01601
G1 X70.276 Y184.416 E.01604
G1 X70.276 Y112.64 E2.25048
G1 X70.3 Y112.097 E.01704
G1 X70.425 Y111.622 E.0154
G1 X70.646 Y111.154 E.01623
G1 X71.097 Y110.612 E.02211
G1 X71.684 Y110.196 E.02256
G1 X72.373 Y109.933 E.02312
G1 X73.134 Y109.841 E.02403
G1 X175.797 Y109.841 E3.21892
G1 X176.558 Y109.933 E.02403
G1 X177.247 Y110.196 E.02312
G1 X177.834 Y110.612 E.02256
G1 X178.285 Y111.154 E.02211
G1 X178.443 Y111.451 E.01055
G1 X178.597 Y111.938 E.01601
G1 X178.656 Y112.537 E.01887
G1 X178.656 Y184.221 E2.2476
G1 X178.631 Y184.764 E.01704
G1 X178.506 Y185.24 E.01543
G1 X178.285 Y185.707 E.0162
G1 X177.834 Y186.25 E.02213
G1 X177.247 Y186.666 E.02256
G1 X176.558 Y186.929 E.02312
G1 X175.797 Y187.021 E.02403
G1 X73.134 Y187.021 E3.21892
G1 X72.373 Y186.929 E.02403
G1 X71.684 Y186.666 E.02312
G1 X71.097 Y186.25 E.02256
G1 X70.646 Y185.707 E.02213
G1 X70.516 Y185.464 E.00864
M204 S1000
G1 X70.725 Y185.089 F10800
;WIPE_START
G1 F8640
G1 X70.335 Y184.924 E-.13151
G1 X70.276 Y184.416 E-.11809
G1 X70.276 Y182.032 E-.5504
;WIPE_END
G1 Z.6 F720
G1 X176.097 Y110.428 F10800
G1 Z.2 F720
G1 E.8 F2100
M204 S800
;TYPE:Solid infill
;WIDTH:0.420188
G1 F1200
G1 X177.924 Y112.255 E.08105
G1 X177.939 Y112.804 E.01723
G1 X175.693 Y110.557 E.09966
G1 X175.159 Y110.557 E.01675
G1 X177.939 Y113.337 E.12333
G1 X177.939 Y113.871 E.01675
G1 X174.626 Y110.557 E.147
G1 X174.092 Y110.557 E.01675
G1 X177.939 Y114.404 E.17067
G1 X177.939 Y114.938 E.01675
G1 X173.559 Y110.557 E.19434
G1 X173.025 Y110.557 E.01675
G1 X177.939 Y115.471 E.218
G1 X177.939 Y116.005 E.01675
G1 X172.492 Y110.557 E.24167
G1 X171.958 Y110.557 E.01675
G1 X177.939 Y116.538 E.26534
G1 X177.939 Y117.072 E.01675
G1 X171.424 Y110.557 E.28903
G1 X170.891 Y110.557 E.01672
G1 X177.939 Y117.605 E.31268
G1 X177.939 Y118.139 E.01675
G1 X170.357 Y110.557 E.33637
G1 X169.824 Y110.557 E.01672
G1 X177.939 Y118.673 E.36003
G1 X177.939 Y119.206 E.01672
G1 X169.29 Y110.557 E.3837
G1 X168.757 Y110.557 E.01672
G1 X177.939 Y119.74 E.40737
G1 X177.939 Y120.273 E.01672
G1 X168.223 Y110.557 E.43104
G1 X167.69 Y110.557 E.01672
G1 X177.939 Y120.807 E.45471
G1 X177.939 Y121.34 E.01672
G1 X167.156 Y110.557 E.47838
G1 X166.623 Y110.557 E.01672
G1 X177.939 Y121.874 E.50204
G1 X177.939 Y122.407 E.01672
G1 X166.089 Y110.557 E.52571
G1 X165.556 Y110.557 E.01672
G1 X177.939 Y122.941 E.54938
G1 X177.939 Y123.474 E.01672
G1 X165.022 Y110.557 E.57305
G1 X164.488 Y110.557 E.01675
G1 X177.939 Y124.008 E.59674
G1 X177.939 Y124.541 E.01672
G1 X163.955 Y110.557 E.62038
G1 X163.421 Y110.557 E.01675
G1 X177.939 Y125.075 E.64407
G1 X177.939 Y125.609 E.01675
G1 X162.888 Y110.557 E.66774
G1 X162.354 Y110.557 E.01675
G1 X177.939 Y126.142 E.69141
G1 X177.939 Y126.676 E.01675
G1 X161.821 Y110.557 E.71508
G1 X161.287 Y110.557 E.01675
G1 X177.939 Y127.209 E.73875
G1 X177.939 Y127.743 E.01675
G1 X160.754 Y110.557 E.76241
G1 X160.22 Y110.557 E.01675
G1 X177.939 Y128.276 E.78608
G1 X177.939 Y128.81 E.01675
G1 X159.687 Y110.557 E.80975
G1 X159.153 Y110.557 E.01675
G1 X177.939 Y129.343 E.83342
G1 X177.939 Y129.877 E.01675
G1 X158.62 Y110.557 E.85709
G1 X158.086 Y110.557 E.01675
M73 Q0 S328
G1 X177.939 Y130.41 E.88076
G1 X177.939 Y130.944 E.01675
G1 X157.552 Y110.557 E.90445
G1 X157.019 Y110.557 E.01672
G1 X177.939 Y131.477 E.92809
G1 X177.939 Y132.011 E.01675
G1 X156.485 Y110.557 E.95178
G1 X155.952 Y110.557 E.01672
G1 X177.939 Y132.545 E.97545
G1 X177.939 Y133.078 E.01672
G1 X155.418 Y110.557 E.99912
G1 X154.885 Y110.557 E.01672
M73 P0 R326
G1 X177.939 Y133.612 E1.02279
G1 X177.939 Y134.145 E.01672
G1 X154.351 Y110.557 E1.04645
G1 X153.818 Y110.557 E.01672
G1 X177.939 Y134.679 E1.07012
G1 X177.939 Y135.212 E.01672
G1 X153.284 Y110.557 E1.09379
G1 X152.751 Y110.557 E.01672
G1 X177.939 Y135.746 E1.11746
G1 X177.939 Y136.279 E.01672
G1 X152.217 Y110.557 E1.14113
G1 X151.684 Y110.557 E.01672
G1 X177.939 Y136.813 E1.16479
G1 X177.939 Y137.346 E.01672
G1 X151.15 Y110.557 E1.18846
G1 X150.616 Y110.557 E.01675
G1 X177.939 Y137.88 E1.21215
G1 X177.939 Y138.413 E.01672
G1 X150.083 Y110.557 E1.2358
G1 X149.549 Y110.557 E.01675
G1 X177.939 Y138.947 E1.25949
G1 X177.939 Y139.481 E.01675
G1 X149.016 Y110.557 E1.28316
G1 X148.482 Y110.557 E.01675
G1 X177.939 Y140.014 E1.30683
G1 X177.939 Y140.548 E.01675
G1 X147.949 Y110.557 E1.33049
G1 X147.415 Y110.557 E.01675
G1 X177.939 Y141.081 E1.35416
G1 X177.939 Y141.615 E.01675
G1 X146.882 Y110.557 E1.37783
G1 X146.348 Y110.557 E.01675
G1 X177.939 Y142.148 E1.4015
G1 X177.939 Y142.682 E.01675
G1 X145.815 Y110.557 E1.42517
G1 X145.281 Y110.557 E.01675
G1 X177.939 Y143.215 E1.44883
G1 X177.939 Y143.749 E.01675
G1 X144.748 Y110.557 E1.4725
G1 X144.214 Y110.557 E.01675
G1 X177.939 Y144.282 E1.49617
G1 X177.939 Y144.816 E.01675
G1 X143.68 Y110.557 E1.51986
G1 X143.147 Y110.557 E.01672
G1 X177.939 Y145.349 E1.54351
G1 X177.939 Y145.883 E.01675
G1 X142.613 Y110.557 E1.5672
G1 X142.08 Y110.557 E.01672
M73 Q0 S327
G1 X177.939 Y146.416 E1.59084
G1 X177.939 Y146.95 E.01675
G1 X141.546 Y110.557 E1.61453
G1 X141.013 Y110.557 E.01672
G1 X177.939 Y147.484 E1.6382
G1 X177.939 Y148.017 E.01672
G1 X140.479 Y110.557 E1.66187
G1 X139.946 Y110.557 E.01672
M73 P0 R325
G1 X177.939 Y148.551 E1.68554
G1 X177.939 Y149.084 E.01672
G1 X139.412 Y110.557 E1.70921
G1 X138.879 Y110.557 E.01672
G1 X177.939 Y149.618 E1.73287
G1 X177.939 Y150.151 E.01672
G1 X138.345 Y110.557 E1.75654
G1 X137.812 Y110.557 E.01672
G1 X177.939 Y150.685 E1.78021
G1 X177.939 Y151.218 E.01672
G1 X137.278 Y110.557 E1.80388
G1 X136.744 Y110.557 E.01675
G1 X177.939 Y151.752 E1.82757
G1 X177.939 Y152.285 E.01672
G1 X136.211 Y110.557 E1.85121
G1 X135.677 Y110.557 E.01675
G1 X177.939 Y152.819 E1.8749
G1 X177.939 Y153.352 E.01672
G1 X135.144 Y110.557 E1.89855
G1 X134.61 Y110.557 E.01675
M73 P1 R325
M73 Q1 S327
G1 X177.939 Y153.886 E1.92224
G1 X177.939 Y154.42 E.01675
G1 X134.077 Y110.557 E1.94591
G1 X133.543 Y110.557 E.01675
G1 X177.939 Y154.953 E1.96958
G1 X177.939 Y155.487 E.01675
G1 X133.01 Y110.557 E1.99324
G1 X132.476 Y110.557 E.01675
G1 X177.939 Y156.02 E2.01691
G1 X177.939 Y156.554 E.01675
G1 X131.943 Y110.557 E2.04058
G1 X131.409 Y110.557 E.01675
G1 X177.939 Y157.087 E2.06425
G1 X177.939 Y157.621 E.01675
M73 Q1 S326
G1 X130.876 Y110.557 E2.08792
G1 X130.342 Y110.557 E.01675
G1 X177.939 Y158.154 E2.11159
G1 X177.939 Y158.688 E.01675
G1 X129.809 Y110.557 E2.13525
G1 X129.275 Y110.557 E.01675
M73 P1 R324
G1 X177.939 Y159.221 E2.15892
G1 X177.939 Y159.755 E.01675
G1 X128.741 Y110.557 E2.18261
G1 X128.208 Y110.557 E.01672
G1 X177.939 Y160.288 E2.20626
G1 X177.939 Y160.822 E.01675
G1 X127.674 Y110.557 E2.22995
G1 X127.141 Y110.557 E.01672
G1 X177.939 Y161.356 E2.25362
G1 X177.939 Y161.889 E.01672
G1 X126.607 Y110.557 E2.27728
G1 X126.074 Y110.557 E.01672
G1 X177.939 Y162.423 E2.30095
G1 X177.939 Y162.956 E.01672
G1 X125.54 Y110.557 E2.32462
G1 X125.007 Y110.557 E.01672
G1 X177.939 Y163.49 E2.34829
G1 X177.939 Y164.023 E.01672
G1 X124.473 Y110.557 E2.37196
G1 X123.94 Y110.557 E.01672
G1 X177.939 Y164.557 E2.39562
G1 X177.939 Y165.09 E.01672
G1 X123.406 Y110.557 E2.41929
G1 X122.873 Y110.557 E.01672
G1 X177.939 Y165.624 E2.44296
G1 X177.939 Y166.157 E.01672
M73 Q1 S325
G1 X122.339 Y110.557 E2.46663
G1 X121.805 Y110.557 E.01675
G1 X177.939 Y166.691 E2.49032
G1 X177.939 Y167.224 E.01672
G1 X121.272 Y110.557 E2.51396
G1 X120.738 Y110.557 E.01675
M73 P1 R323
G1 X177.939 Y167.758 E2.53766
G1 X177.939 Y168.292 E.01675
G1 X120.205 Y110.557 E2.56132
G1 X119.671 Y110.557 E.01675
G1 X177.939 Y168.825 E2.58499
G1 X177.939 Y169.359 E.01675
G1 X119.138 Y110.557 E2.60866
G1 X118.604 Y110.557 E.01675
G1 X177.939 Y169.892 E2.63233
G1 X177.939 Y170.426 E.01675
G1 X118.071 Y110.557 E2.656
G1 X117.537 Y110.557 E.01675
G1 X177.939 Y170.959 E2.67966
G1 X177.939 Y171.493 E.01675
G1 X117.004 Y110.557 E2.70333
G1 X116.47 Y110.557 E.01675
G1 X177.939 Y172.026 E2.727
G1 X177.939 Y172.56 E.01675
G1 X115.937 Y110.557 E2.75067
G1 X115.403 Y110.557 E.01675
G1 X177.939 Y173.093 E2.77434
G1 X177.939 Y173.627 E.01675
M73 Q1 S324
G1 X114.869 Y110.557 E2.79803
G1 X114.336 Y110.557 E.01672
G1 X177.939 Y174.16 E2.82167
G1 X177.939 Y174.694 E.01675
G1 X113.802 Y110.557 E2.84536
G1 X113.269 Y110.557 E.01672
M73 P1 R322
G1 X177.939 Y175.228 E2.86903
G1 X177.939 Y175.761 E.01672
G1 X112.735 Y110.557 E2.8927
G1 X112.202 Y110.557 E.01672
G1 X177.939 Y176.295 E2.91637
G1 X177.939 Y176.828 E.01672
G1 X111.668 Y110.557 E2.94004
G1 X111.135 Y110.557 E.01672
G1 X177.939 Y177.362 E2.9637
G1 X177.939 Y177.895 E.01672
G1 X110.601 Y110.557 E2.98737
G1 X110.068 Y110.557 E.01672
G1 X177.939 Y178.429 E3.01104
G1 X177.939 Y178.962 E.01672
G1 X109.534 Y110.557 E3.03471
G1 X109.001 Y110.557 E.01672
G1 X177.939 Y179.496 E3.05838
G1 X177.939 Y180.029 E.01672
M73 P2 R322
M73 Q2 S324
G1 X108.467 Y110.557 E3.08204
G1 X107.933 Y110.557 E.01675
M73 Q2 S323
G1 X177.939 Y180.563 E3.10573
G1 X177.939 Y181.096 E.01672
G1 X107.4 Y110.557 E3.12938
G1 X106.866 Y110.557 E.01675
M73 P2 R321
G1 X177.939 Y181.63 E3.15307
G1 X177.939 Y182.164 E.01675
G1 X106.333 Y110.557 E3.17674
G1 X105.799 Y110.557 E.01675
G1 X177.939 Y182.697 E3.20041
G1 X177.939 Y183.231 E.01675
G1 X105.266 Y110.557 E3.22407
G1 X104.732 Y110.557 E.01675
G1 X177.939 Y183.764 E3.24774
G1 X177.939 Y184.298 E.01675
G1 X104.199 Y110.557 E3.27141
G1 X103.665 Y110.557 E.01675
G1 X177.893 Y184.785 E3.29304
G1 X177.87 Y184.893 E.00346
G1 X177.754 Y185.18 E.00971
G1 X103.132 Y110.557 E3.31054
G1 X102.598 Y110.557 E.01675
G1 X177.532 Y185.492 E3.32438
G1 X177.343 Y185.719 E.00927
G1 X177.275 Y185.768 E.00263
G1 X102.065 Y110.557 E3.33663
G1 X101.531 Y110.557 E.01675
M73 Q2 S322
G1 X176.963 Y185.989 E3.34645
G1 X176.906 Y186.029 E.00218
G1 X176.59 Y186.15 E.01061
G1 X100.997 Y110.557 E3.35359
G1 X100.464 Y110.557 E.01672
M73 P2 R320
G1 X176.162 Y186.255 E3.35825
G1 X175.754 Y186.304 E.01289
G1 X175.678 Y186.304 E.00238
G1 X99.93 Y110.557 E3.36045
G1 X99.397 Y110.557 E.01672
G1 X175.144 Y186.304 E3.36043
G1 X174.61 Y186.304 E.01675
G1 X98.863 Y110.557 E3.36043
G1 X98.33 Y110.557 E.01672
G1 X174.077 Y186.304 E3.36043
G1 X173.543 Y186.304 E.01675
G1 X97.796 Y110.557 E3.36043
G1 X97.263 Y110.557 E.01672
G1 X173.01 Y186.304 E3.36043
G1 X172.476 Y186.304 E.01675
G1 X96.729 Y110.557 E3.36043
G1 X96.196 Y110.557 E.01672
G1 X171.943 Y186.304 E3.36043
G1 X171.409 Y186.304 E.01675
M73 Q2 S321
G1 X95.662 Y110.557 E3.36043
G1 X95.129 Y110.557 E.01672
G1 X170.876 Y186.304 E3.36043
G1 X170.342 Y186.304 E.01675
M73 P2 R319
G1 X94.595 Y110.557 E3.36043
G1 X94.061 Y110.557 E.01675
G1 X169.809 Y186.304 E3.36045
G1 X169.275 Y186.304 E.01675
G1 X93.528 Y110.557 E3.36043
G1 X92.994 Y110.557 E.01675
G1 X168.742 Y186.304 E3.36045
G1 X168.208 Y186.304 E.01675
G1 X92.461 Y110.557 E3.36043
G1 X91.927 Y110.557 E.01675
G1 X167.674 Y186.304 E3.36043
G1 X167.141 Y186.304 E.01672
G1 X91.394 Y110.557 E3.36043
G1 X90.86 Y110.557 E.01675
G1 X166.607 Y186.304 E3.36043
G1 X166.074 Y186.304 E.01672
G1 X90.327 Y110.557 E3.36043
G1 X89.793 Y110.557 E.01675
M73 Q2 S320
G1 X165.54 Y186.304 E3.36043
G1 X165.007 Y186.304 E.01672
G1 X89.26 Y110.557 E3.36043
G1 X88.726 Y110.557 E.01675
M73 P3 R318
G1 X164.473 Y186.304 E3.36043
G1 X163.94 Y186.304 E.01672
M73 Q3 S320
G1 X88.193 Y110.557 E3.36043
G1 X87.659 Y110.557 E.01675
G1 X163.406 Y186.304 E3.36043
G1 X162.873 Y186.304 E.01672
G1 X87.126 Y110.557 E3.36043
G1 X86.592 Y110.557 E.01675
G1 X162.339 Y186.304 E3.36043
G1 X161.806 Y186.304 E.01672
G1 X86.058 Y110.557 E3.36045
G1 X85.525 Y110.557 E.01672
G1 X161.272 Y186.304 E3.36043
G1 X160.738 Y186.304 E.01675
G1 X84.991 Y110.557 E3.36043
G1 X84.458 Y110.557 E.01672
G1 X160.205 Y186.304 E3.36043
G1 X159.671 Y186.304 E.01675
M73 Q3 S319
G1 X83.924 Y110.557 E3.36043
G1 X83.391 Y110.557 E.01672
G1 X159.138 Y186.304 E3.36043
G1 X158.604 Y186.304 E.01675
M73 P3 R317
G1 X82.857 Y110.557 E3.36043
G1 X82.324 Y110.557 E.01672
G1 X158.071 Y186.304 E3.36043
G1 X157.537 Y186.304 E.01675
G1 X81.79 Y110.557 E3.36043
